X:1
T:Shottery, 88.88.88
T:Shottery, 88.88.88
T:Francis Everard William Hulton, 1889
T:Public Domain Courtesy of the Cyber Hymnal™
C:Francis Everard William Hulton, 1889
Z:Public Domain
Z:Courtesy of the Cyber Hymnal™
%%score ( 1 2 ) ( 3 4 )
L:1/8
Q:1/4=108
M:4/4
K:G
V:1 treble 
V:2 treble 
V:3 bass 
V:4 bass 
V:1
 [DB]2 [^DB]2 [EB]2 | c2 [GB]2 [GA]2 [FB]2 | [EG]2 [DF]2 E2 D2 | G2 A2 [B,B]2 [Gd]2 | %4
 !fermata![FA]2 [DA]2 [DB]2 [DB]2 | [Cc]2 [DB]2 [EA]2 [^DB]2 | [EG]2 [GB]2 [FB]2 [E^c]2 | %7
 [Dd]2 [FB]2 G2 [^CG]2 | !fermata![DF]2 [FA]2 [EA]2 B2 | [Ac]2 [EA]2 E2 [CF]2 | [B,G]2 G2 e2 d2 | %11
 [Gd]2 [GB]2 [DG]2 A2 | !fermata!G2 |] %13
V:2
 x6 | (EF) x6 | x4 (DC) (B,A,) | (G,E) (DC) x4 | x8 | x8 | x8 | x4 (EB,) x2 | x6 (F^G) | x4 E2 x2 | %10
 x2 (GF) (EF) (GA) | x6 (EF) | G2 |] %13
V:3
 [G,B,]2 [F,A,]2 [E,G,]2 | [A,,C]2 [B,,D]2 [C,E]2 [D,D]2 | [E,B,]2 (B,A,) [C,G,]2 [D,F,]2 | %3
 [E,B,]2 [F,A,]2 [G,D]2 D2 | !fermata![D,D]2 F,2 G,2 (G,F,) | (E,F,) [B,,G,]2 [C,E,]2 [B,,F,]2 | %6
 [E,G,]2 [E,G,]2 [D,B,]2 [^C,^A,]2 | [B,,B,]2 [D,B,]2 [E,B,]2 [E,G,]2 | %8
 !fermata![D,A,]2 D2 [CE]2 [B,D]2 | [A,E]2 C2 [C,A,]2 [A,,A,]2 | [E,G,]2 B,2 C2 ([E,B,][F,A,]) | %11
 [G,B,]2 D2 [D,B,]2 [D,C]2 | !fermata![G,,B,]2 |] %13
V:4
 x6 | x8 | x2 B,,2 x4 | x6 (B,,C,) | x2 (D,C,) (B,,A,,) G,,2 | A,,2 x6 | x8 | x8 | x2 D2 x4 | %9
 x2 (A,,B,,) x4 | x2 (E,D,) (C,D,) x2 | x2 (G,,B,,) x4 | x2 |] %13

